X: 18021
T: Huish The Cat
R: jig
M: 6/8
K: Gmajor
G>GG G2d|edB g3|G>GG G2d|edB B2A|
G>GG G2d|edB g3|bag age|edB B2A|
g>gg g2d|edB g3|g>gg g2d|edB B2A|
g>gg g2d|edB g3|b>ag age|edB B2A|

